X:31
T:Eklundapolska #3
R:polska J
C:Viksta-Lasse
A:Uppland
Z:id:hn-hp-31
M:3/4
L:1/16
K:G
|: g2fg b2g2 d2B2 | cBcd egec A3c | B2AB cdcA BcBG | A2d2 d8 |
g2fg b2g2 d2B2 | cBcd egec A3c | B2AB cdcA BcBG | ABAF G8 :|
|: B3B c2c2 B2B2 | A2d2 d8 | B3B c2c2 B2B2 | ABAF D8 |
B3B c2c2 B2B2 | A2d2 d6B2 | G2AB cdcA BcBG | ABAF G8 :|
